apps/site/public/icons/companies/turso.svg

<svg width="48" height="48" viewBox="0 0 48 48" fill="none" xmlns="http://www.w3.org/2000/svg">
<path d="M23.9722 12.4897C42.3579 12.4897 39.0787 20.1385 39.0787 20.1385C38.916 25.0113 37.1066 35.8588 36.507 37.0093C35.9065 38.1607 32.7211 41.4603 30.2281 42.7258C30.2281 42.7258 29.3278 41.7645 28.7769 40.9173C28.0791 41.7468 24.4656 44.6581 23.9722 44.6581V12.4897Z" fill="#1EBCA1"/>
<path d="M39.3042 18.8146C39.3042 19.5999 39.0787 20.134 39.0787 20.134C38.916 25.0068 37.1066 35.8534 36.507 37.0049C35.9065 38.1563 32.7211 41.4558 30.2281 42.7213C30.2281 42.7213 29.3278 41.76 28.7769 40.9128C28.0791 41.7424 24.4656 44.6537 23.9722 44.6537V18.8146H39.3042Z" fill="#1EBCA1"/>
<path d="M36.991 20.0456L36.1084 27.2222L31.202 27.6626L31.6345 33.7275C31.6345 33.7275 28.6471 36.2196 23.9751 36.2196V20.4869L36.9955 20.0447L36.991 20.0456Z" fill="url(#paint0_linear_4525_15800)"/>
<path d="M46.9695 17.0477L23.0884 25.2236V17.3767L44.6286 11.9078L46.9695 17.0477Z" fill="#4FF7D1"/>
<path d="M46.9721 17.0459L40.3925 19.2559V3.34192C40.3925 3.34192 46.9721 10.5317 46.9721 17.0459ZM32.2706 15.9917L34.6142 11.3471L38.1834 15.6787M23.0884 17.3766H28.383L29.4513 31.7297C27.3735 32.2606 25.2373 32.5289 23.0928 32.5283V17.3766H23.0884Z" fill="#4FF7D1"/>
<path d="M24.029 12.4897C5.6433 12.4897 8.92249 20.1385 8.92249 20.1385C9.08521 25.0113 10.8946 35.8588 11.4942 37.0093C12.0947 38.1608 15.2792 41.4603 17.7731 42.7258C17.7731 42.7258 18.6734 41.7645 19.2243 40.9173C19.9212 41.7468 23.5347 44.6581 24.029 44.6581V12.4897Z" fill="#1EBCA1"/>
<path d="M8.69629 18.8145C8.69629 19.5999 8.92091 20.134 8.92091 20.134C9.08452 25.0068 10.893 35.8534 11.4935 37.0048C12.0931 38.1563 15.2785 41.4558 17.7724 42.7213C17.7724 42.7213 18.6718 41.76 19.2228 40.9128C19.9205 41.7423 23.534 44.6536 24.0283 44.6536V18.8145H8.69629Z" fill="#1EBCA1"/>
<path d="M11.0098 20.0457L11.8924 27.2222L16.7979 27.6626L16.3654 33.7275C16.3654 33.7275 19.3528 36.2196 24.0257 36.2196V20.487L11.0054 20.0448L11.0098 20.0457Z" fill="url(#paint1_linear_4525_15800)"/>
<path d="M1.03125 17.0477L24.9115 25.2235V17.3767L3.37214 11.9078L1.03125 17.0477Z" fill="#4FF7D1"/>
<path d="M1.02872 17.0458L7.60743 19.2559V3.34189C7.60743 3.34189 1.02783 10.5317 1.02783 17.0458H1.02872ZM15.7302 15.9917L13.3867 11.3471L9.81832 15.6786M24.9116 17.3766H19.617L18.5496 31.7297C20.6366 32.2629 22.7715 32.5282 24.9072 32.5282V17.3766H24.9116Z" fill="#4FF7D1"/>
<defs>
<linearGradient id="paint0_linear_4525_15800" x1="36.991" y1="-38.2219" x2="23.9707" y2="-38.2219" gradientUnits="userSpaceOnUse">
<stop stop-color="#1D2B33"/>
<stop offset="1" stop-color="#121B24"/>
</linearGradient>
<linearGradient id="paint1_linear_4525_15800" x1="11.0098" y1="-38.2218" x2="24.0301" y2="-38.2218" gradientUnits="userSpaceOnUse">
<stop stop-color="#1D2B33"/>
<stop offset="1" stop-color="#121B24"/>
</linearGradient>
</defs>
</svg>

<svg xmlns="http://www.w3.org/2000/svg" width="48" height="48" fill="none" viewBox="0 0 48 48"><path fill="#1ebca1" d="M23.972 12.49c18.386 0 15.107 7.649 15.107 7.649-.163 4.872-1.972 15.72-2.572 16.87-.6 1.152-3.786 4.451-6.279 5.717 0 0-.9-.962-1.451-1.809-.698.83-4.311 3.741-4.805 3.741z"/><path fill="#1ebca1" d="M39.304 18.815c0 .785-.225 1.319-.225 1.319-.163 4.873-1.972 15.72-2.572 16.87-.6 1.152-3.786 4.452-6.279 5.717 0 0-.9-.961-1.451-1.808-.698.83-4.311 3.74-4.805 3.74V18.816z"/><path fill="url(#a)" d="m36.991 20.046-.883 7.176-4.906.44.432 6.066s-2.987 2.492-7.659 2.492V20.487l13.02-.442z"/><path fill="#4ff7d1" d="m46.97 17.048-23.882 8.176v-7.847l21.54-5.47z"/><path fill="#4ff7d1" d="m46.972 17.046-6.58 2.21V3.342s6.58 7.19 6.58 13.704m-14.701-1.054 2.343-4.645 3.57 4.332m-15.096 1.698h5.295l1.068 14.353a25.7 25.7 0 0 1-6.358.798V17.377z"/><path fill="#1ebca1" d="M24.029 12.49c-18.386 0-15.107 7.649-15.107 7.649.163 4.872 1.973 15.72 2.572 16.87.6 1.152 3.785 4.451 6.28 5.717 0 0 .9-.962 1.45-1.809.697.83 4.31 3.741 4.805 3.741z"/><path fill="#1ebca1" d="M8.696 18.815c0 .785.225 1.319.225 1.319.164 4.873 1.972 15.72 2.573 16.87.6 1.152 3.784 4.452 6.278 5.717 0 0 .9-.961 1.45-1.808.698.83 4.312 3.74 4.806 3.74V18.816z"/><path fill="url(#b)" d="m11.01 20.046.882 7.176 4.906.44-.433 6.066s2.988 2.492 7.66 2.492V20.487l-13.02-.442z"/><path fill="#4ff7d1" d="m1.031 17.048 23.88 8.176v-7.847l-21.539-5.47z"/><path fill="#4ff7d1" d="m1.029 17.046 6.578 2.21V3.342s-6.58 7.19-6.58 13.704zm14.701-1.054-2.343-4.645-3.569 4.332m15.094 1.698h-5.295L18.55 31.73c2.087.533 4.221.798 6.357.798V17.377z"/><defs><linearGradient id="a" x1="36.991" x2="23.971" y1="-38.222" y2="-38.222" gradientUnits="userSpaceOnUse"><stop stop-color="#1d2b33"/><stop offset="1" stop-color="#121b24"/></linearGradient><linearGradient id="b" x1="11.01" x2="24.03" y1="-38.222" y2="-38.222" gradientUnits="userSpaceOnUse"><stop stop-color="#1d2b33"/><stop offset="1" stop-color="#121b24"/></linearGradient></defs></svg>
